images/logo-red-black.svg

<?xml version="1.0" encoding="UTF-8"?>
<svg width="800px" height="492px" viewBox="0 0 800 492" version="1.1" xmlns="http://www.w3.org/2000/svg" xmlns:xlink="http://www.w3.org/1999/xlink">
    <!-- Generator: Sketch 48.2 (47327) - http://www.bohemiancoding.com/sketch -->
    <title>Hope Church Logo</title>
    <desc>Created with Sketch.</desc>
    <defs>
        <polygon id="path-1" points="0 0 330 266.5 650 0 650 187 330 453.5 0 187"></polygon>
        <path d="M18.693,0.719 L24.769,0.719 L13.95,24 L11.16,24 L0.31,0.719 L6.448,0.719 L12.555,13.956 L18.693,0.719 Z M40.9220004,24 L34.8150004,24 L45.6650004,0.75 L48.4240004,0.75 L59.3670004,24 L53.2600004,24 L51.8340004,20.962 L42.3170004,20.962 L40.9220004,24 Z M47.0910004,10.701 L44.7040004,15.816 L49.4470004,15.816 L47.0910004,10.701 Z M79.6740008,0.75 L79.6740008,14.731 C79.6740008,16.405 81.0380008,17.769 82.7120008,17.769 C84.3860008,17.769 85.7500008,16.405 85.7500008,14.731 L85.7500008,0.75 L91.8880008,0.75 L91.8880008,14.824 C91.8880008,19.939 87.7650008,24 82.7120008,24 C77.5970008,24 73.5360008,19.939 73.5360008,14.824 L73.5360008,0.75 L79.6740008,0.75 Z M121.867001,0.75 L129.307001,0.75 L121.557001,11.879 L130.082001,24 L122.642001,24 L117.837001,17.18 L113.001001,24 L105.561001,24 L114.086001,11.879 L106.336001,0.75 L113.776001,0.75 L117.837001,6.547 L121.867001,0.75 Z M143.817002,0.75 L149.924002,0.75 L149.924002,9.027 L157.302002,9.027 L157.302002,0.75 L163.409002,0.75 L163.409002,24 L157.302002,24 L157.302002,15.134 L149.924002,15.134 L149.924002,24 L143.817002,24 L143.817002,0.75 Z M183.747002,24 L177.640002,24 L188.490002,0.75 L191.249002,0.75 L202.192002,24 L196.085002,24 L194.659002,20.962 L185.142002,20.962 L183.747002,24 Z M189.916002,10.701 L187.529002,15.816 L192.272002,15.816 L189.916002,10.701 Z M216.392002,24 L216.392002,0.75 L222.499002,0.75 L222.499002,17.862 L230.869002,17.862 L230.869002,24 L216.392002,24 Z M246.340003,24 L246.340003,0.75 L252.447003,0.75 L252.447003,17.862 L260.817003,17.862 L260.817003,24 L246.340003,24 Z" id="path-3"></path>
        <path d="M26.0923069,21.72 C26.0923069,21.72 26.0923069,21.72 26.0923069,21.72 Z M26.0923075,21.72 L31.9999998,31.0738461 C31.9999998,31.0738461 27.5692306,36.4892306 18.2153845,36.4892306 C7.87692302,36.4892306 0,28.6123076 0,18.52 C0,8.42769238 7.87692302,0.550769358 18.2153845,0.550769358 C27.5692306,0.550769358 31.9999998,5.96615394 31.9999998,5.96615394 L26.0923075,15.32 C26.0923075,15.32 23.1384614,12.6123077 19.6923076,12.6123077 C16.2461537,12.6123077 13.7846153,15.0738462 13.7846153,18.52 C13.7846153,21.9661538 16.2461537,24.4276923 19.6923076,24.4276923 C23.1375439,24.4276923 26.0907347,21.7214415 26.0923069,21.7200006 L26.0923075,21.72 Z M60.1230769,1.28923089 L60.1230769,13.1046154 L67.9999999,13.1046154 L67.9999999,1.28923089 L80.7999998,1.28923089 L80.7999998,35.7507691 L67.9999999,35.7507691 L67.9999999,23.9353846 L60.1230769,23.9353846 L60.1230769,35.7507691 L47.323077,35.7507691 L47.323077,1.28923089 L60.1230769,1.28923089 Z M114.830769,24.1815384 C117.046154,24.1815384 118.769231,22.4584615 118.769231,19.7507692 L118.769231,1.28923089 L131.569231,1.28923089 L131.569231,19.7507692 C131.569231,29.596923 124.676923,36.4892306 114.830769,36.4892306 C104.984615,36.4892306 98.0923078,29.596923 98.0923078,19.7507692 L98.0923078,1.28923089 L110.892308,1.28923089 L110.892308,19.7507692 C110.892308,22.4584615 112.615385,24.1815384 114.830769,24.1815384 Z M182.830769,35.7507691 L168.061538,35.7507691 L162.153846,24.4276923 L161.661538,24.4276923 L161.661538,35.7507691 L148.861539,35.7507691 L148.861539,1.28923089 C148.861539,1.28923089 155.753846,0.796923203 163.138462,0.796923203 C173.969231,0.796923203 178.892308,5.72000009 178.892308,12.8584616 C178.892308,19.9969231 174.461538,22.4584615 174.461538,22.4584615 L182.830769,35.7507691 Z M161.661538,15.5661539 L163.138462,15.5661539 C164.861538,15.5661539 166.092308,14.3353846 166.092308,12.8584616 C166.092308,11.3815385 164.861538,10.1507693 163.138462,10.1507693 L161.661538,10.1507693 L161.661538,15.5661539 Z M195.2,18.52 C195.2,8.42769238 203.076923,0.550769358 213.415385,0.550769358 C222.769231,0.550769358 227.2,5.96615394 227.2,5.96615394 L221.292308,15.32 C221.292308,15.32 218.338462,12.6123077 214.892308,12.6123077 C211.446154,12.6123077 208.984615,15.0738462 208.984615,18.52 C208.984615,21.9661538 211.446154,24.4276923 214.892308,24.4276923 C218.338462,24.4276923 221.292308,21.72 221.292308,21.72 L227.2,31.0738461 C227.2,31.0738461 222.769231,36.4892306 213.415385,36.4892306 C203.076923,36.4892306 195.2,28.6123076 195.2,18.52 Z M255.323077,1.28923089 L255.323077,13.1046154 L263.2,13.1046154 L263.2,1.28923089 L276,1.28923089 L276,35.7507691 L263.2,35.7507691 L263.2,23.9353846 L255.323077,23.9353846 L255.323077,35.7507691 L242.523077,35.7507691 L242.523077,1.28923089 L255.323077,1.28923089 Z" id="path-5"></path>
        <path d="M70,4 L70,68 L113,68 L113,4 L183,4 L183,191 L113,191 L112.888301,127 L70,127 L70,191 L0,191 L0,4 L70,4 Z M348.759829,97.5 C348.759829,78.8013699 335.360643,65.4452055 319.281619,65.4452055 C303.202596,65.4452055 289.80341,78.8013699 289.80341,97.5 C289.80341,116.19863 303.202596,129.554795 319.281619,129.554795 C335.360643,129.554795 348.759829,116.19863 348.759829,97.5 Z M423.795273,97.5 C423.795273,152.260274 380.917876,195 319.281619,195 C257.645362,195 214.767966,152.260274 214.767966,97.5 C214.767966,42.739726 257.645362,0 319.281619,0 C380.917876,0 423.795273,42.739726 423.795273,97.5 Z M536.563103,1.33561644 C594.869,1.33561644 621.371681,28.0479452 621.371681,66.7808219 C621.371681,105.513699 594.869,132.226027 549.814443,132.226027 C539.213371,132.226027 525.962031,130.890411 525.962031,130.890411 L525.962031,191 L457.055062,191 L457.055062,4.00684932 C457.055062,4 494.158815,1.33561644 536.563103,1.33561644 Z M526,81.4726027 L536.563103,81.4726027 C545.839041,81.4726027 552.464711,74.7945205 552.464711,66.7808219 C552.464711,58.7671233 545.839041,52.0890411 536.563103,52.0890411 L526,52.0890411 L526,81.4726027 Z M720,124 L720,137 L800,137 L800,191 L651.186017,191 L651.186017,4 L800,4 L800,57.4315068 L720,57 L720,71 L789,71 L789,124 L720,124 Z" id="path-7"></path>
    </defs>
    <g id="Hope-Church-Copy" stroke="none" stroke-width="1" fill="none" fill-rule="evenodd" transform="translate(-307.000000, -236.000000)">
        <g id="Hope-Church-Logo" transform="translate(307.000000, 236.000000)">
            <g>
                <g id="Arrow" transform="translate(70.000000, 4.000000)">
                    <mask id="mask-2" fill="white">
                        <use xlink:href="#path-1"></use>
                    </mask>
                    <use id="Mask" fill="#EB4749" xlink:href="#path-1"></use>
                    <g id="Swatch/Red" mask="url(#mask-2)" fill="#EB4749">
                        <g transform="translate(-70.000000, -49.000000)" id="Rectangle-2">
                            <rect x="0" y="0" width="800" height="544"></rect>
                        </g>
                    </g>
                </g>
                <g id="VAUXHALL" transform="translate(265.000000, 468.000000)">
                    <mask id="mask-4" fill="white">
                        <use xlink:href="#path-3"></use>
                    </mask>
                    <use id="Mask" fill="#000000" xlink:href="#path-3"></use>
                    <g id="Swatch/Black" mask="url(#mask-4)" fill="#000000">
                        <g transform="translate(-36.000000, -20.000000)" id="Rectangle-2">
                            <rect x="0" y="0" width="317" height="63"></rect>
                        </g>
                    </g>
                </g>
                <g id="CHURCH" transform="translate(260.000000, 217.000000)">
                    <mask id="mask-6" fill="white">
                        <use xlink:href="#path-5"></use>
                    </mask>
                    <use id="Mask" fill="#000000" xlink:href="#path-5"></use>
                    <g id="Swatch/Black" mask="url(#mask-6)" fill="#000000">
                        <g transform="translate(-26.000000, -19.000000)" id="Rectangle-2">
                            <rect x="0" y="0" width="332" height="79"></rect>
                        </g>
                    </g>
                </g>
                <g id="HOPE">
                    <mask id="mask-8" fill="white">
                        <use xlink:href="#path-7"></use>
                    </mask>
                    <use id="Hope" fill="#000000" xlink:href="#path-7"></use>
                    <g id="Swatch/Black" mask="url(#mask-8)" fill="#000000">
                        <g transform="translate(-29.000000, -16.000000)" id="Rectangle-2">
                            <rect x="0" y="0" width="854" height="229"></rect>
                        </g>
                    </g>
                </g>
            </g>
        </g>
    </g>
</svg>

<svg width="800" height="492" viewBox="0 0 800 492" xmlns="http://www.w3.org/2000/svg" xmlns:xlink="http://www.w3.org/1999/xlink"><title>Hope Church Logo</title><defs><path id="a" d="M0 0L330 266.5 650 0 650 187 330 453.5 0 187z"/><path d="M18.693.719h6.076L13.95 24h-2.79L.31.719h6.138l6.107 13.237L18.693.719zM40.922 24h-6.107L45.665.75h2.759L59.367 24H53.26l-1.426-3.038h-9.517L40.922 24zm6.169-13.299l-2.387 5.115h4.743l-2.356-5.115zM79.674.75v13.981a3.043 3.043 0 0 0 3.038 3.038 3.043 3.043 0 0 0 3.038-3.038V.75h6.138v14.074A9.155 9.155 0 0 1 82.712 24c-5.115 0-9.176-4.061-9.176-9.176V.75h6.138zm42.193 0h7.44l-7.75 11.129L130.082 24h-7.44l-4.805-6.82-4.836 6.82h-7.44l8.525-12.121L106.336.75h7.44l4.061 5.797 4.03-5.797zm21.95 0h6.107v8.277h7.378V.75h6.107V24h-6.107v-8.866h-7.378V24h-6.107V.75zM183.747 24h-6.107L188.49.75h2.759L202.192 24h-6.107l-1.426-3.038h-9.517L183.747 24zm6.169-13.299l-2.387 5.115h4.743l-2.356-5.115zM216.392 24V.75h6.107v17.112h8.37V24h-14.477zm29.948 0V.75h6.107v17.112h8.37V24H246.34z" id="c"/><path d="M26.092 21.72zm0 0L32 31.074s-4.43 5.415-13.785 5.415C7.877 36.49 0 28.612 0 18.52 0 8.428 7.877.55 18.215.55 27.57.55 32 5.967 32 5.967l-5.908 9.354s-2.954-2.708-6.4-2.708-5.907 2.462-5.907 5.908 2.461 5.908 5.907 5.908 6.399-2.707 6.4-2.708zM60.123 1.29v11.815H68V1.289h12.8v34.462H68V23.935h-7.877v11.816h-12.8V1.289h12.8zm54.708 22.892c2.215 0 3.938-1.724 3.938-4.431V1.289h12.8v18.462c0 9.846-6.892 16.738-16.738 16.738s-16.739-6.892-16.739-16.738V1.289h12.8v18.462c0 2.707 1.723 4.43 3.939 4.43zm68 11.569h-14.77l-5.907-11.323h-.492V35.75h-12.8V1.289s6.892-.492 14.276-.492c10.831 0 15.754 4.923 15.754 12.061 0 7.139-4.43 9.6-4.43 9.6l8.369 13.293zm-21.17-20.185h1.477c1.724 0 2.954-1.23 2.954-2.708 0-1.476-1.23-2.707-2.954-2.707h-1.476v5.415zM195.2 18.52c0-10.092 7.877-17.97 18.215-17.97 9.354 0 13.785 5.416 13.785 5.416l-5.908 9.354s-2.954-2.708-6.4-2.708-5.907 2.462-5.907 5.908 2.461 5.908 5.907 5.908 6.4-2.708 6.4-2.708l5.908 9.354s-4.43 5.415-13.785 5.415c-10.338 0-18.215-7.877-18.215-17.969zm60.123-17.23v11.815h7.877V1.289H276v34.462h-12.8V23.935h-7.877v11.816h-12.8V1.289h12.8z" id="e"/><path d="M70 4v64h43V4h70v187h-70l-.112-64H70v64H0V4h70zm278.76 93.5c0-18.699-13.4-32.055-29.478-32.055-16.08 0-29.479 13.356-29.479 32.055 0 18.699 13.4 32.055 29.479 32.055S348.76 116.199 348.76 97.5zm75.035 0c0 54.76-42.877 97.5-104.513 97.5-61.637 0-104.514-42.74-104.514-97.5S257.645 0 319.282 0c61.636 0 104.513 42.74 104.513 97.5zM536.563 1.336c58.306 0 84.809 26.712 84.809 65.445 0 38.733-26.503 65.445-71.558 65.445-10.6 0-23.852-1.336-23.852-1.336V191h-68.907V4.007c0-.007 37.104-2.671 79.508-2.671zM526 81.473h10.563c9.276 0 15.902-6.678 15.902-14.692s-6.626-14.692-15.902-14.692H526v29.384zM720 124v13h80v54H651.186V4H800v53.432L720 57v14h69v53h-69z" id="g"/></defs><g fill="none" fill-rule="evenodd"><g transform="translate(70 4)"><mask id="b" fill="#fff"><use xlink:href="#a"/></mask><use fill="#EB4749" xlink:href="#a"/><g mask="url(#b)" fill="#ff3140"><path transform="translate(-70 -49)" d="M0 0H800V544H0z"/></g></g><g transform="translate(265 468)"><mask id="d" fill="#fff"><use xlink:href="#c"/></mask><use fill="#000" xlink:href="#c"/><g mask="url(#d)" fill="#000"><path transform="translate(-36 -20)" d="M0 0H317V63H0z"/></g></g><g transform="translate(260 217)"><mask id="f" fill="#fff"><use xlink:href="#e"/></mask><use fill="#000" xlink:href="#e"/><g mask="url(#f)" fill="#000"><path transform="translate(-26 -19)" d="M0 0H332V79H0z"/></g></g><mask id="h" fill="#fff"><use xlink:href="#g"/></mask><use fill="#000" xlink:href="#g"/><g mask="url(#h)" fill="#000"><path transform="translate(-29 -16)" d="M0 0H854V229H0z"/></g></g></svg>
